X: 40331
T: Tom Brigg's
R: polka
M: 2/4
K: Dmajor
D2|DFzA dAF2|GBzd g4|DFzA dAF2|E8|
DFzA dAF2|GBzd g4|fedf edce|zdAF D4:|
|:FAzF AFA2|FAzF EFD2|GBzG BGB2|GBzF EFD2|
FAzF AFA2|FAzd edeg|fedf efgd|zdAF D4:|

